X: 2
T: A Kerry
R: reel
M: 4/4
L: 1/8
K: Edor
Beed BcdA|~B2AF EFGA|Beed BcdA|(3BcdAF D2FA:|Beec d2 [.d2.f2]|[de]dBc dB(3ABA|Beec d2 [.d2.f2]|[de]dBc ~d3A|Beec d2[.d2.f2]|[de]dBc dBAf|~g3e ~f3e|dBAB [B3e3]d|


Tune 1808	Setting 28107

